X:1
T: Lady Hamilton of Dalrymple
C:
R:Strathspey
Q: 128
K:Gm
M:4/4
L:1/16
|:d2|BG3 G3F DG3 G3B|A3F c3F d3F A3d|BG3 G3F DG3 G3A|B3A B3c dg3 g3a|
b3g a3^f g3d f3d|d3B f3B AF3 Ac3|BG3 G3F DG3 G3A|BABc dcBA BG3 G2B2|
Gg3 g4 d3g Bg3|Ff3 f4 c3f AF3|Gg3 g3f d3^f g3a|((3a2b2a2) ((3g2a2^f2) g3f g3a|
b3g a3^f g3d =f3B|e3c d3G ^Fd3 D3c|BG3 G3F DG3 G3A|BABc dcBA BG3 G2:|
